svg/aws-auto-scaling.svg

<?xml version="1.0" encoding="UTF-8"?>
<svg xmlns="http://www.w3.org/2000/svg" xmlns:xlink="http://www.w3.org/1999/xlink" width="32" height="32" viewBox="0 0 32 32">
<path fill-rule="nonzero" fill="rgb(92.941176%, 44.313725%, 0%)" fill-opacity="1" d="M 32.214844 15.648438 L 26.421875 15.648438 L 29.1875 12.878906 L 28.160156 11.859375 L 24.121094 15.898438 C 23.839844 16.183594 23.839844 16.640625 24.121094 16.925781 L 28.160156 20.964844 L 29.1875 19.941406 L 26.332031 17.09375 L 32.214844 17.09375 Z M 4.5 11.859375 L 3.480469 12.878906 L 6.246094 15.648438 L 0.453125 15.648438 L 0.453125 17.09375 L 6.332031 17.09375 L 3.480469 19.941406 L 4.5 20.964844 L 8.546875 16.921875 C 8.828125 16.636719 8.828125 16.179688 8.546875 15.898438 Z M 12.605469 20.09375 L 20.054688 20.09375 L 20.054688 12.648438 L 12.605469 12.648438 Z M 21.347656 11.832031 L 22.679688 11.832031 L 22.679688 13.285156 L 21.5 13.285156 L 21.5 14.375 L 22.679688 14.375 L 22.679688 15.820312 L 21.5 15.820312 L 21.5 16.914062 L 22.679688 16.914062 L 22.679688 18.359375 L 21.5 18.359375 L 21.5 19.453125 L 22.679688 19.453125 L 22.679688 20.898438 L 21.347656 20.898438 C 21.234375 21.101562 21.070312 21.265625 20.867188 21.378906 L 20.867188 22.71875 L 19.421875 22.71875 L 19.421875 21.539062 L 18.328125 21.539062 L 18.328125 22.71875 L 16.878906 22.71875 L 16.878906 21.539062 L 15.785156 21.539062 L 15.785156 22.71875 L 14.339844 22.71875 L 14.339844 21.539062 L 13.246094 21.539062 L 13.246094 22.71875 L 11.800781 22.71875 L 11.800781 21.378906 C 11.597656 21.269531 11.429688 21.101562 11.320312 20.898438 L 9.980469 20.898438 L 9.980469 19.453125 L 11.167969 19.453125 L 11.167969 18.359375 L 9.980469 18.359375 L 9.980469 16.914062 L 11.167969 16.914062 L 11.167969 15.820312 L 9.980469 15.820312 L 9.980469 14.375 L 11.167969 14.375 L 11.167969 13.28125 L 9.980469 13.28125 L 9.980469 11.832031 L 11.320312 11.832031 C 11.433594 11.632812 11.601562 11.464844 11.800781 11.351562 L 11.800781 10.019531 L 13.246094 10.019531 L 13.246094 11.199219 L 14.339844 11.199219 L 14.339844 10.019531 L 15.785156 10.019531 L 15.785156 11.199219 L 16.878906 11.199219 L 16.878906 10.019531 L 18.328125 10.019531 L 18.328125 11.199219 L 19.421875 11.199219 L 19.421875 10.019531 L 20.867188 10.019531 L 20.867188 11.351562 C 21.066406 11.464844 21.234375 11.632812 21.347656 11.832031 M 17.058594 29.867188 L 17.058594 23.988281 L 15.613281 23.988281 L 15.613281 29.867188 L 12.800781 27.058594 L 11.78125 28.078125 L 15.820312 32.121094 C 16.105469 32.398438 16.558594 32.398438 16.839844 32.121094 L 20.886719 28.078125 L 19.859375 27.058594 Z M 12.800781 5.679688 L 11.78125 4.660156 L 15.820312 0.613281 C 15.957031 0.476562 16.136719 0.402344 16.328125 0.402344 C 16.519531 0.402344 16.703125 0.476562 16.839844 0.613281 L 20.886719 4.660156 L 19.859375 5.679688 L 17.058594 2.875 L 17.058594 8.746094 L 15.613281 8.746094 L 15.613281 2.875 Z M 12.800781 5.679688 "/>
</svg>

<svg role="img" viewBox="0 0 32 32" xmlns="http://www.w3.org/2000/svg"><path d="M32.215 15.648h-5.793l2.765-2.77-1.027-1.019-4.039 4.04a.73.73 0 0 0 0 1.027l4.04 4.039 1.026-1.024-2.855-2.847h5.883ZM4.5 11.86l-1.02 1.02 2.766 2.77H.453v1.445h5.879L3.48 19.94l1.02 1.024 4.047-4.043a.726.726 0 0 0 0-1.024Zm8.105 8.235h7.45v-7.446h-7.45Zm8.743-8.262h1.332v1.453H21.5v1.09h1.18v1.445H21.5v1.094h1.18v1.445H21.5v1.094h1.18v1.445h-1.332a1.24 1.24 0 0 1-.48.48v1.34h-1.446V21.54h-1.094v1.18h-1.45v-1.18h-1.093v1.18H14.34v-1.18h-1.094v1.18h-1.445v-1.34a1.2 1.2 0 0 1-.48-.48H9.98v-1.446h1.187V18.36H9.98v-1.445h1.188V15.82H9.98v-1.445h1.188v-1.094H9.98v-1.449h1.34c.114-.2.282-.367.48-.48V10.02h1.446v1.18h1.094v-1.18h1.445v1.18h1.094v-1.18h1.45v1.18h1.093v-1.18h1.445v1.332c.2.113.367.28.48.48M17.06 29.867v-5.879h-1.446v5.88l-2.812-2.81-1.02 1.02 4.04 4.043a.73.73 0 0 0 1.019 0l4.047-4.043-1.028-1.02ZM12.8 5.68l-1.02-1.02L15.82.613a.72.72 0 0 1 1.019 0l4.047 4.047-1.028 1.02-2.8-2.805v5.871h-1.446V2.875Zm0 0" fill="rgb(92.941177%, 44.313726%, 0%)"/></svg>
